icons/svg/shields/h_telescope_shield.svg

<?xml version="1.0" encoding="UTF-8" standalone="no"?>
<!-- Created with Inkscape (http://www.inkscape.org/) -->

<svg
   xmlns:dc="http://purl.org/dc/elements/1.1/"
   xmlns:cc="http://creativecommons.org/ns#"
   xmlns:rdf="http://www.w3.org/1999/02/22-rdf-syntax-ns#"
   xmlns:svg="http://www.w3.org/2000/svg"
   xmlns="http://www.w3.org/2000/svg"
   xmlns:sodipodi="http://sodipodi.sourceforge.net/DTD/sodipodi-0.dtd"
   xmlns:inkscape="http://www.inkscape.org/namespaces/inkscape"
   version="1.0"
   width="16"
   height="16"
   id="svg2"
   sodipodi:version="0.32"
   inkscape:version="0.91 r13725"
   sodipodi:docname="h_telescope_shield.svg"
   inkscape:output_extension="org.inkscape.output.svg.inkscape">
  <metadata
     id="metadata10">
    <rdf:RDF>
      <cc:Work
         rdf:about="">
        <dc:format>image/svg+xml</dc:format>
        <dc:type
           rdf:resource="http://purl.org/dc/dcmitype/StillImage" />
        <cc:license
           rdf:resource="http://web.resource.org/cc/PublicDomain" />
        <dc:language>en</dc:language>
        <dc:title />
      </cc:Work>
    </rdf:RDF>
  </metadata>
  <sodipodi:namedview
     inkscape:window-height="1006"
     inkscape:window-width="1920"
     inkscape:pageshadow="2"
     inkscape:pageopacity="0.0"
     guidetolerance="10.0"
     gridtolerance="10.0"
     objecttolerance="10.0"
     borderopacity="1.0"
     bordercolor="#666666"
     pagecolor="#ffffff"
     id="base"
     showgrid="false"
     inkscape:zoom="32"
     inkscape:cx="1.469292"
     inkscape:cy="7.54269"
     inkscape:window-x="1920"
     inkscape:window-y="0"
     inkscape:current-layer="svg2"
     inkscape:window-maximized="1"
     showguides="true"
     inkscape:guide-bbox="true" />
  <defs
     id="defs4">
    <inkscape:perspective
       sodipodi:type="inkscape:persp3d"
       inkscape:vp_x="0 : 290 : 1"
       inkscape:vp_y="0 : 1000 : 0"
       inkscape:vp_z="580 : 290 : 1"
       inkscape:persp3d-origin="290 : 193.33333 : 1"
       id="perspective12" />
    <style
       type="text/css"
       id="style6">
   
    .fil0 {fill:#EF7900}
   
  </style>
    <inkscape:perspective
       id="perspective6807"
       inkscape:persp3d-origin="29.116032 : 19.410688 : 1"
       inkscape:vp_z="58.232063 : 29.116032 : 1"
       inkscape:vp_y="0 : 1000 : 0"
       inkscape:vp_x="0 : 29.116032 : 1"
       sodipodi:type="inkscape:persp3d" />
    <inkscape:perspective
       id="perspective6954"
       inkscape:persp3d-origin="290 : 193.33333 : 1"
       inkscape:vp_z="580 : 290 : 1"
       inkscape:vp_y="0 : 1000 : 0"
       inkscape:vp_x="0 : 290 : 1"
       sodipodi:type="inkscape:persp3d" />
    <inkscape:perspective
       id="perspective2541"
       inkscape:persp3d-origin="240 : 160 : 1"
       inkscape:vp_z="480 : 240 : 1"
       inkscape:vp_y="0 : 1000 : 0"
       inkscape:vp_x="0 : 240 : 1"
       sodipodi:type="inkscape:persp3d" />
    <inkscape:perspective
       id="perspective2750"
       inkscape:persp3d-origin="215 : 143.33333 : 1"
       inkscape:vp_z="430 : 215 : 1"
       inkscape:vp_y="0 : 1000 : 0"
       inkscape:vp_x="0 : 215 : 1"
       sodipodi:type="inkscape:persp3d" />
    <inkscape:perspective
       id="perspective3730"
       inkscape:persp3d-origin="88.929146 : 101.19778 : 1"
       inkscape:vp_z="177.85829 : 151.79668 : 1"
       inkscape:vp_y="0 : 1000 : 0"
       inkscape:vp_x="0 : 151.79668 : 1"
       sodipodi:type="inkscape:persp3d" />
  </defs>
  <g
     id="g2319"
     transform="matrix(0.02756385,0,0,0.02756385,24.245165,1.0091162)">
    <path
       inkscape:connector-curvature="0"
       id="path2323"
       style="fill:#ffffff;stroke:none"
       d="" />
  </g>
  <g
     id="g2325"
     transform="matrix(0.02756385,0,0,0.02756385,24.245165,1.0091162)">
    <path
       inkscape:connector-curvature="0"
       id="path2329"
       style="fill:#ffffff;stroke:none"
       d="" />
  </g>
  <path
     style="color:#000000;clip-rule:nonzero;display:inline;overflow:visible;visibility:visible;opacity:0.804;isolation:auto;mix-blend-mode:normal;color-interpolation:sRGB;color-interpolation-filters:linearRGB;solid-color:#000000;solid-opacity:1;fill:#ebe7e4;fill-opacity:1;fill-rule:nonzero;stroke:none;stroke-width:5.75826359;stroke-linecap:butt;stroke-linejoin:miter;stroke-miterlimit:4;stroke-dasharray:none;stroke-dashoffset:0;stroke-opacity:1;marker:none;color-rendering:auto;image-rendering:auto;shape-rendering:auto;text-rendering:auto;enable-background:accumulate"
     d="m 11.757947,1.0187144 c -0.360218,0.00421 -0.682505,0.2247941 -0.816828,0.5590586 L 10.70511,2.1636128 10.07575,2.2071321 C 9.2746864,2.2623972 8.9492212,3.2654698 9.5652326,3.7805308 L 10.048969,4.1839233 9.8949765,4.7965444 C 9.8654229,4.9130431 9.859729,5.0343147 9.8782385,5.1530698 9.5733715,4.9176629 9.2312478,4.7111792 8.8220529,4.7111792 c -0.050122,0 -0.08635,0.039452 -0.1355801,0.043519 C 8.6203994,4.6463224 8.5319462,4.553304 8.4270295,4.4818648 7.4563618,3.8190782 6.4753786,3.4046678 5.5061994,3.398898 4.9270644,3.3954618 4.3080187,3.5676742 3.8591525,4.0165405 3.2744753,4.6012177 2.6759104,5.5865971 2.5334807,6.8821343 2.3910509,8.1776715 2.8072994,9.7568234 4.2006135,11.150396 c 0.2015571,0.201598 0.4324437,0.250444 0.6444238,0.410088 -0.7691485,0.521513 -1.3758867,1.276942 -1.3758867,2.251299 -3.335e-4,0.492859 0.3992913,0.892483 0.8921504,0.89215 l 5.3294687,0 c 0.4928593,3.34e-4 0.8924843,-0.399291 0.8921503,-0.89215 0,-0.596001 -0.256321,-1.066048 -0.6092734,-1.467947 0.5487594,-0.224737 1.0178014,-0.510815 1.3591484,-0.851979 l 0.0017,0 C 11.946123,10.880202 12.042853,9.9964937 11.888506,9.1953648 11.734159,8.3942362 11.341832,7.5798889 10.772063,6.7817046 10.723488,6.7130623 10.665444,6.651638 10.599658,6.5992573 c 0.0015,-0.030672 0.02678,-0.052679 0.02678,-0.083691 0,-0.2802057 -0.185702,-0.4849329 -0.302963,-0.7230938 0.284482,0.1588613 0.632969,0.1498763 0.908888,-0.023434 L 11.76799,5.434273 12.301942,5.7690386 c 0.680667,0.4279111 1.535393,-0.1928339 1.339062,-0.9724942 L 13.487012,4.1855971 13.970749,3.7805308 C 14.586759,3.2654698 14.261295,2.262398 13.460231,2.2071323 L 12.830871,2.1636128 12.594862,1.577773 C 12.457806,1.2367169 12.12549,1.0147298 11.757947,1.0187144 Z"
     id="path4176"
     inkscape:connector-curvature="0"
     sodipodi:nodetypes="ccccccccscccsssccccccccsccsccccccccccc" />
</svg>

<svg width="16" height="16" viewBox="0 0 16 16" fill="none" xmlns="http://www.w3.org/2000/svg">
<path opacity="0.804" d="M11.7579 1.01873C11.3977 1.02294 11.0754 1.24352 10.9411 1.57779L10.7051 2.16363L10.0757 2.20715C9.27468 2.26241 8.94921 3.26548 9.56522 3.78055L10.049 4.18394L9.89497 4.79656C9.86542 4.91306 9.85972 5.03433 9.87823 5.15309C9.57336 4.91768 9.23124 4.71119 8.82205 4.71119C8.77192 4.71119 8.7357 4.75065 8.68647 4.75471C8.62039 4.64634 8.53194 4.55332 8.42702 4.48188C7.45635 3.81909 6.47537 3.40468 5.50619 3.39891C4.92706 3.39548 4.30801 3.56769 3.85914 4.01656C3.27447 4.60123 2.6759 5.58661 2.53347 6.88215C2.39104 8.17769 2.80729 9.75684 4.20061 11.1504C4.40216 11.352 4.63305 11.4009 4.84503 11.5605C4.07588 12.082 3.46914 12.8374 3.46914 13.8118C3.46881 14.3047 3.86843 14.7043 4.36129 14.7039H9.69076C10.1836 14.7043 10.5832 14.3047 10.5829 13.8118C10.5829 13.2158 10.3266 12.7458 9.97364 12.3439C10.5224 12.1191 10.9914 11.833 11.3328 11.4919H11.3345C11.9461 10.8802 12.0428 9.99651 11.8885 9.19538C11.7342 8.39425 11.3418 7.5799 10.7721 6.78172C10.7235 6.71308 10.6654 6.65165 10.5997 6.59927C10.6012 6.5686 10.6264 6.54659 10.6264 6.51558C10.6264 6.23538 10.4407 6.03065 10.3235 5.79249C10.6079 5.95135 10.9564 5.94236 11.2324 5.76905L11.768 5.43429L12.3019 5.76905C12.9826 6.19697 13.8373 5.57622 13.641 4.79656L13.487 4.18561L13.9707 3.78055C14.5868 3.26548 14.2613 2.26241 13.4602 2.20715L12.8309 2.16363L12.5949 1.57779C12.4578 1.23673 12.1255 1.01474 11.7579 1.01873Z" fill="#EBE7E4"/>
</svg>
